X: 6
T:Paddy Wack. JaW.006
M:6/8
Q:120
C:"1834"
S:James Winder Ms, Lancashire, 1835-41
R:Jig
O:England
A:Wyresdale,Lancashire
N:a
H:1/8
Z:vmp.Chris Partington, Aug 2004
K:G
D|GBd gfg|edc BAG|GBd gfg|fddd2e/f/|!
geg fdB|cec dBG|GBd cAc|BGGG3:|!
|:BdB cec|dBGA2G|Bcd efg|fddd2(e/f/)|!
geg fdB|cec dBG|GBd cAd|BGGG2:|]
